packages/kaspersky-hexa-ui-icons/src/iconsSVGs/48/EmojiSad.svg

<svg xmlns="http://www.w3.org/2000/svg" width="48" height="48" fill="none" viewBox="0 0 48 48"><path fill="#000" fill-rule="evenodd" d="M48 24c0 13.2548-10.7452 24-24 24S0 37.2548 0 24 10.7452 0 24 0s24 10.7452 24 24m-2 0c0 12.1503-9.8497 22-22 22S2 36.1503 2 24 11.8497 2 24 2s22 9.8497 22 22m-30.5-3c.8284 0 1.5-.6716 1.5-1.5s-.6716-1.5-1.5-1.5-1.5.6716-1.5 1.5.6716 1.5 1.5 1.5M34 19.5c0 .8284-.6716 1.5-1.5 1.5s-1.5-.6716-1.5-1.5.6716-1.5 1.5-1.5 1.5.6716 1.5 1.5M18.8944 30.4472C19.7926 28.6509 21.5093 27 24 27s4.2074 1.6509 5.1056 3.4472c.247.494.8476.6942 1.3416.4472s.6942-.8476.4472-1.3416C29.7926 27.3491 27.5093 25 24 25s-5.7926 2.3491-6.8944 4.5528c-.247.494-.0468 1.0946.4472 1.3416s1.0946.0468 1.3416-.4472"/></svg>

<svg width="48" height="48" viewBox="0 0 48 48" fill="none" xmlns="http://www.w3.org/2000/svg">
<g clip-path="url(#clip0_27333_19)">
<path d="M15.5 21C16.3284 21 17 20.3284 17 19.5C17 18.6716 16.3284 18 15.5 18C14.6716 18 14 18.6716 14 19.5C14 20.3284 14.6716 21 15.5 21Z" fill="black"/>
<path d="M34 19.5C34 20.3284 33.3284 21 32.5 21C31.6716 21 31 20.3284 31 19.5C31 18.6716 31.6716 18 32.5 18C33.3284 18 34 18.6716 34 19.5Z" fill="black"/>
<path d="M18.8944 30.4472C19.7926 28.6509 21.5093 27 24 27C26.4907 27 28.2074 28.6509 29.1056 30.4472C29.3526 30.9412 29.9532 31.1414 30.4472 30.8944C30.9412 30.6474 31.1414 30.0468 30.8944 29.5528C29.7926 27.3491 27.5093 25 24 25C20.4907 25 18.2074 27.3491 17.1056 29.5528C16.8586 30.0468 17.0588 30.6474 17.5528 30.8944C18.0468 31.1414 18.6474 30.9412 18.8944 30.4472Z" fill="black"/>
<path fill-rule="evenodd" clip-rule="evenodd" d="M48 24C48 37.2548 37.2548 48 24 48C10.7452 48 0 37.2548 0 24C0 10.7452 10.7452 0 24 0C37.2548 0 48 10.7452 48 24ZM46 24C46 36.1503 36.1503 46 24 46C11.8497 46 2 36.1503 2 24C2 11.8497 11.8497 2 24 2C36.1503 2 46 11.8497 46 24Z" fill="black"/>
</g>
<defs>
<clipPath id="clip0_27333_19">
<rect width="48" height="48" fill="white"/>
</clipPath>
</defs>
</svg>
